X: 18608
T: I Will If I Can
R: jig
M: 6/8
K: Gmajor
|:GBd gdB|ded d2B|GBd gdB|ABA AdB|
GBd gdB|def gfe|dcB cBA|1 GAG GdB:|2 GAG Gef||
|:g2d edB|ded def|g2d edB|ABA Aef|
g2d edB|def gfe|dcB cBA|1 GAG Gef:|2 GAG GdB||

